X: 3222
T: HOW SHE GOT UP IN THE MORNING
%R: jig
B: James Kerr "Merry Melodies" v.3 p.25 #222
Z: 2016 John Chambers <jc:trillian.mit.edu>
M: 6/8
L: 1/8
K: A
(uA/G/) |\
EAA Adc | AEE E2D |\
E=GG GAB | A=GE E2D |\
EAA AGA | BcB d2e |\
=gdd edB | A3- A2 :|
|: e |\
eaa aga | bab a2=g |\
[1 d=gg gfg | a=ga g2 :|\
[2 ede =gdB | A3- A2 |]

%%sep 1 1 500
%%sep 1 1 500

